!!!OTL: Tres faciunt collegium.
!!!OTL-incipit: TRES FACIUNT COLEGIUM
!!!ARE: Europa, Mitteleuropa, Deutschland
!!!COM: Ch. Schulz
!!!SCT: F0554
!!!TXL: @@DE, @@LAT
!!!YEM: Copyright 1995, estate of Helmut Schaffrath.
**kern	**text
*ICvox	*
*M2/4	*
*k[f#]	*
*G:	*
!LO:TX:a:t=Munter.	!
{8d	1._Tres
=1	=1
8g	fa-
8g	-ci-
8g	-unt
8g	col-
=2	=2
8a	-le-
8a	-gi-
8a}	-um!
{8cc	Wir
=3	=3
8b	Ʒwei
8b	und
8.dd	Ein
16cc	Po-
=4	=4
4a	-kal!
8r}	.
{8a	Ʒwei
=5	=5
8a	ſi-
8a	-tʒen,
8a	Ei-
8a	-ner
=6	=6
8a	geht
8a	her-
8a}	-um
{8dd	in
=7	=7
8b	unſ'-
8ee	-rer
8dd	vol-
8cc#	-len
=8	=8
4dd	Ʒahl,
8r}	.
{8dd	in
=9	=9
8ee	unſ'-
8ee	-rer
8dd	vol-
8cc#	-len
=10	=10
4dd	Ʒahl!
8r}	.
{8d	und
=11	=11
8ccn	ei-
8cc	-nig
8cc	ſind
8cc	wir
=12	=12
(16.bL	al-
32ccJ)	.
(16.aL	-le
32bJ)	.
8g}	Drei,
{8d	daß
=13	=13
8cc	Re-
8cc	-ben-
8cc	-ſaft
8cc	kein
=14	=14
(16.bL	Waſ-
32ccJ)	.
(16.aL	-ſer
32bJ)	.
8g}	ſei,
{8b	daß
=15	=15
4ee^^	Re-
4b^^	-ben-
=16	=16
4.cc^^	-ſaft
16bL	kein
16aJ	.
=17	=17
4g	Waſ-
4f#	-ſer
=18	=18
4g	ſei.
8r;}	.
==	==
!!!AGN: Studenten - Lied
!!!ONB: ESAC (Essen Associative Code) Database: FINK
!!!AMT: simple duple
!!!AIN: vox
!!!EED: Helmut Schaffrath
!!!EEV: 1.0
!!!GTL: Studentenlieder
!!Text: W. Müller
!!!source: Musikalischer Hausschatz der Deutschen. Eine Sammlung von über 1000 Liedern und Gesängen mit Singstimmen und Klavierbegleitung. Leipzig, Litterarisches Verlags-Haus.
!!!page: 357
!!!ENC: Anna Maria Matuszewska
!!!EEV: 2025/03/18
*-	*-
